build/img/svg/popular-block-icon8.svg

<svg width="48" height="45" viewBox="0 0 48 45" fill="none" xmlns="http://www.w3.org/2000/svg">
<path d="M32 20.959V16.959C32 14.202 26.322 12.959 23.5 12.959C20.677 12.959 15 14.202 15 16.959V20.959" stroke="#0061D9" stroke-width="2" stroke-miterlimit="10"/>
<path d="M23.5 9.97403C25.604 9.97403 27 8.25202 27 6.12802V4.84601C27 2.72201 25.604 1 23.5 1C21.396 1 20 2.72201 20 4.84601V6.12802C20 8.25202 21.396 9.97403 23.5 9.97403Z" stroke="#0061D9" stroke-width="2" stroke-miterlimit="10"/>
<path d="M8.5 12.959C6.396 12.959 5 11.232 5 9.10297V7.81696C5 5.68696 6.396 3.95996 8.5 3.95996C10.604 3.95996 12 5.68796 12 7.81696V9.10297C12 11.232 10.604 12.959 8.5 12.959Z" stroke="#0061D9" stroke-width="2" stroke-miterlimit="10"/>
<path d="M15 43.959L12 34.959H6C3.25 34.959 1 32.709 1 29.959V18.959C1 17.309 2.35 15.959 4 15.959H7L12 20.959H18C18 20.959 18.447 24.959 15 24.959C12.99 24.959 9 24.959 9 24.959L5 20.959" stroke="#0061D9" stroke-width="2" stroke-miterlimit="10"/>
<path d="M8 23.959V28.959H12.319C13.921 28.959 15.471 29.447 16 30.959L20 43.959" stroke="#0061D9" stroke-width="2" stroke-miterlimit="10"/>
<path d="M40.5 12.959C42.604 12.959 44 11.232 44 9.10297V7.81696C44 5.68696 42.604 3.95996 40.5 3.95996C38.396 3.95996 37 5.68796 37 7.81696V9.10297C37 11.232 38.396 12.959 40.5 12.959Z" stroke="#0061D9" stroke-width="2" stroke-miterlimit="10"/>
<path d="M32.9999 43.959L35.9999 34.959H41.9999C44.7499 34.959 46.9999 32.709 46.9999 29.959V18.959C46.9999 17.309 45.6499 15.959 43.9999 15.959H40.9999L35.9999 20.959H29.9999C29.9999 20.959 29.5529 24.959 32.9999 24.959C35.0099 24.959 38.9999 24.959 38.9999 24.959L42.9999 20.959" stroke="#0061D9" stroke-width="2" stroke-miterlimit="10"/>
<path d="M40 23.959V28.959H35.681C34.079 28.959 32.529 29.447 32 30.959L28 43.959" stroke="#0061D9" stroke-width="2" stroke-miterlimit="10"/>
<path d="M11 24.959H37" stroke="#0061D9" stroke-width="2" stroke-miterlimit="10"/>
</svg>

<svg width="48" height="45" fill="none" xmlns="http://www.w3.org/2000/svg"><path d="M32 20.959v-4c0-2.757-5.678-4-8.5-4-2.823 0-8.5 1.243-8.5 4v4m8.5-10.985c2.104 0 3.5-1.722 3.5-3.846V4.846C27 2.722 25.604 1 23.5 1S20 2.722 20 4.846v1.282c0 2.124 1.396 3.846 3.5 3.846zm-15 2.985c-2.104 0-3.5-1.727-3.5-3.856V7.817C5 5.687 6.396 3.96 8.5 3.96S12 5.688 12 7.817v1.286c0 2.129-1.396 3.856-3.5 3.856z"/><path d="M15 43.959l-3-9H6c-2.75 0-5-2.25-5-5v-11c0-1.65 1.35-3 3-3h3l5 5h6s.447 4-3 4H9l-4-4"/><path d="M8 23.959v5h4.319c1.602 0 3.152.488 3.681 2l4 13m20.5-31c2.104 0 3.5-1.727 3.5-3.856V7.817c0-2.13-1.396-3.857-3.5-3.857S37 5.688 37 7.817v1.286c0 2.129 1.396 3.856 3.5 3.856zm-7.5 31l3-9h6c2.75 0 5-2.25 5-5v-11c0-1.65-1.35-3-3-3h-3l-5 5h-6s-.447 4 3 4h6l4-4"/><path d="M40 23.959v5h-4.319c-1.602 0-3.152.488-3.681 2l-4 13m-17-19h26"/></svg>
